svg/device/camcorder_2_line.svg

<?xml version="1.0" encoding="UTF-8"?>
<svg width="24px" height="24px" viewBox="0 0 24 24" version="1.1" xmlns="http://www.w3.org/2000/svg" xmlns:xlink="http://www.w3.org/1999/xlink">
    <title>camcorder_2_line</title>
    <g id="Icon" stroke="none" stroke-width="1" fill="none" fill-rule="evenodd">
        <g id="Device" transform="translate(-384.000000, -288.000000)">
            <g id="camcorder_2_line" transform="translate(384.000000, 288.000000)">
                <path d="M24,0 L24,24 L0,24 L0,0 L24,0 Z M12.5935,23.2578 L12.5819,23.2595 L12.5109,23.295 L12.4919,23.2987 L12.4767,23.295 L12.4057,23.2595 C12.3958,23.2564 12.387,23.259 12.3821,23.2649 L12.378,23.2758 L12.3609,23.7031 L12.3659,23.7235 L12.3769,23.7357 L12.4805,23.8097 L12.4953,23.8136 L12.5071,23.8097 L12.6107,23.7357 L12.6233,23.7197 L12.6267,23.7031 L12.6096,23.2758 C12.6076,23.2657 12.601,23.2593 12.5935,23.2578 Z M12.8584,23.1453 L12.8445,23.1473 L12.6598,23.2397 L12.6499,23.2499 L12.6472,23.2611 L12.6651,23.6906 L12.6699,23.7034 L12.6784,23.7105 L12.8793,23.8032 C12.8914,23.8069 12.9022,23.803 12.9078,23.7952 L12.9118,23.7812 L12.8777,23.1665 C12.8753,23.1546 12.8674,23.147 12.8584,23.1453 Z M12.143,23.1473 C12.1332,23.1424 12.1222,23.1453 12.1156,23.1526 L12.1099,23.1665 L12.0758,23.7812 C12.0751,23.7927 12.0828,23.8019 12.0926,23.8046 L12.1083,23.8032 L12.3092,23.7105 L12.3186,23.7024 L12.3225,23.6906 L12.3404,23.2611 L12.3372,23.2485 L12.3278,23.2397 L12.143,23.1473 Z" id="MingCute" fill-rule="nonzero"></path>
                <path d="M20.7282,6.51701 L21.7635,10.3807 C22.0494,11.4476 21.4162,12.5443 20.3493,12.8302 L17.9999,13.4597 L17.9999,14.9999 C17.9999,15.5522 18.4476,15.9999 18.9999,15.9999 L19.9999,15.9999 C19.9999,15.4477 20.4476,14.9999 20.9999,14.9999 C21.5522,14.9999 21.9999,15.4477 21.9999,15.9999 L21.9999,17.9999 C21.9999,18.5522 21.5522,18.9999 20.9999,18.9999 C20.4476,18.9999 19.9999,18.5522 19.9999,17.9999 L18.9999,17.9999 C17.3431,17.9999 15.9999,16.6568 15.9999,14.9999 L15.9999,13.9956 L9.48678,15.7408 C8.62424,15.9719 7.713,15.6033 7.25382,14.8374 L4.23897,9.809 C3.72652,8.95428 4.17462,7.84671 5.13723,7.58878 L17.054,4.39569 C18.6544,3.96687 20.2994,4.91661 20.7282,6.51701 Z M2.83257,10.3149 C3.27403143,10.0538786 3.83433607,10.171124 4.1371516,10.5698369 L4.20229,10.6668 L5.82735,13.4157 C6.10841,13.8911 5.95085,14.5044 5.47542,14.7854 C5.03395857,15.0464214 4.47366255,14.929176 4.17084025,14.5304631 L4.1057,14.4335 L2.48064,11.6846 C2.19958,11.2092 2.35715,10.596 2.83257,10.3149 Z M17.5716,6.32754 L6.29515,9.34907 L8.96914,13.809 L19.8316,10.8984 L18.7964,7.03465 C18.6534,6.50118 18.1051,6.1846 17.5716,6.32754 Z" id="形状" fill="#09244B"></path>
            </g>
        </g>
    </g>
</svg>

<svg xmlns="http://www.w3.org/2000/svg" width="24" height="24"><g fill="none" fill-rule="evenodd"><path d="M24 0v24H0V0h24ZM12.594 23.258l-.012.002-.071.035-.02.004-.014-.004-.071-.036c-.01-.003-.019 0-.024.006l-.004.01-.017.428.005.02.01.013.104.074.015.004.012-.004.104-.074.012-.016.004-.017-.017-.427c-.002-.01-.009-.017-.016-.018Zm.264-.113-.014.002-.184.093-.01.01-.003.011.018.43.005.012.008.008.201.092c.012.004.023 0 .029-.008l.004-.014-.034-.614c-.003-.012-.01-.02-.02-.022Zm-.715.002a.023.023 0 0 0-.027.006l-.006.014-.034.614c0 .012.007.02.017.024l.015-.002.201-.093.01-.008.003-.011.018-.43-.003-.012-.01-.01-.184-.092Z"/><path fill="#09244B" d="m20.728 6.517 1.035 3.864a2 2 0 0 1-1.414 2.45L18 13.46V15a1 1 0 0 0 1 1h1a1 1 0 0 1 2 0v2a1 1 0 1 1-2 0h-1a3 3 0 0 1-3-3v-1.004L9.488 15.74a2 2 0 0 1-2.233-.904L4.239 9.81a1.5 1.5 0 0 1 .898-2.22l11.917-3.193a3 3 0 0 1 3.674 2.121ZM2.833 10.315a1 1 0 0 1 1.304.255l.065.097 1.625 2.749a1 1 0 0 1-1.656 1.114l-.065-.096-1.625-2.75a1 1 0 0 1 .352-1.37Zm14.739-3.987L6.295 9.349l2.674 4.46 10.863-2.91-1.036-3.864a1 1 0 0 0-1.224-.707Z"/></g></svg>
